src/app/_images/logo/light.svg

<svg width="4769" height="1024" viewBox="0 0 4769 1024" fill="none"
    xmlns="http://www.w3.org/2000/svg">
    <path
        d="M275.402 43.198c-2.006.17-4.01.298-5.974 1.11-.512.214-.854.64-1.366.896-1.066.554-1.962 1.194-2.944 1.92-2.006 1.45-3.67 3.072-5.034 5.034-.342.512-.982.726-1.28 1.28L2.814 501.42a21.3 21.3 0 0 0 0 21.162l255.99 447.982c.342.512.938.726 1.28 1.238a20.6 20.6 0 0 0 5.248 5.29c.854.598 1.622 1.194 2.56 1.664.554.298.938.768 1.536 1.024 2.346.938 4.778 1.238 7.168 1.322.256 0 .512.214.768.214h469.314c.426 0 .81-.298 1.238-.342 2.986-.17 5.974-.64 8.704-2.09.17-.086.214-.256.384-.342.982-.554 1.622-1.536 2.518-2.262 1.962-1.578 3.882-3.114 5.206-5.206.128-.214.384-.298.47-.47l255.992-447.982a21.5 21.5 0 0 0 2.81-10.624c0-3.67-.93-7.296-2.81-10.582L765.198 53.434c-.128-.214-.384-.298-.512-.512-1.194-1.962-2.986-3.328-4.778-4.822-1.024-.854-1.792-2.006-2.944-2.646-.128-.086-.214-.214-.342-.298-2.218-1.152-4.65-1.366-7.04-1.706-.982-.128-1.878-.768-2.902-.768H277.364c-.682.004-1.28.472-1.962.516m-1.452 69.8 62.59 156.496L86.182 441.602zM59.006 512l282.356-194.126v388.252zm27.22 70.526 250.316 172.066-62.592 156.454zM308.852 938.65l64.638-161.53 290.802 161.53zm97.916-191.908L764.3 550.1l-35.752 375.408zm559.124-213.41L777.228 863.558l31.144-330.226zM745.06 511.998 384.028 710.56V313.434zm220.832-21.332H808.756L777.312 160.61zm-201.208-16.64L406.896 277.212 728.588 98.49zM664.38 85.348 373.49 246.964 308.852 85.348zm701.89 782.1q-68.355 0-107.52-26.88-38.4-26.88-53.76-72.96-15.36-46.848-15.36-107.52V438.136q0-63.744 15.36-110.592t53.76-72.192q39.165-25.344 107.52-25.344c43.01 0 76.55 7.424 100.61 22.272 24.58 14.336 41.98 35.072 52.22 62.208q15.36 40.704 15.36 94.464v52.224h-109.05v-53.76c0-17.408-1.03-33.28-3.07-47.616-1.54-14.336-6.4-25.6-14.6-33.792-7.68-8.704-21.24-13.056-40.7-13.056s-33.79 4.608-43.01 13.824q-13.05 13.056-16.89 36.096-3.84 22.272-3.84 50.688v270.336q0 33.792 5.37 56.064 5.385 21.504 19.2 33.024c9.73 7.168 22.79 10.752 39.17 10.752 18.94 0 32.26-4.352 39.94-13.056q12.285-13.824 15.36-36.096c2.04-14.848 3.07-31.488 3.07-49.92V628.6h109.05v49.92c0 36.864-4.86 69.632-14.59 98.304q-14.595 42.24-51.45 66.816-36.105 23.808-102.15 23.808m416.29 0c-44.03 0-79.11-8.192-105.22-24.576s-44.8-39.936-56.06-70.656c-11.27-30.72-16.9-67.072-16.9-109.056V430.456c0-41.984 5.63-77.824 16.9-107.52 11.26-30.208 29.95-53.248 56.06-69.12s61.19-23.808 105.22-23.808c45.05 0 80.38 7.936 105.98 23.808q39.165 23.808 56.07 69.12c11.77 29.696 17.66 65.536 17.66 107.52v233.472c0 41.472-5.89 77.568-17.66 108.288q-16.905 45.312-56.07 70.656c-25.6 16.384-60.93 24.576-105.98 24.576m0-83.712c18.94 0 32.77-4.096 41.47-12.288 9.22-8.192 15.36-19.456 18.43-33.792s4.61-29.952 4.61-46.848V404.344c0-17.408-1.54-33.024-4.61-46.848s-9.21-24.576-18.43-32.256c-8.7-8.192-22.53-12.288-41.47-12.288q-26.88 0-40.71 12.288c-9.21 7.68-15.36 18.432-18.43 32.256s-4.61 29.44-4.61 46.848v286.464q0 25.344 3.84 46.848c3.08 14.336 9.22 25.6 18.44 33.792 9.21 8.192 23.04 12.288 41.47 12.288M2046.35 859V236.92h79.1l151.3 354.816V236.92h93.69V859h-75.26l-152.06-371.712V859zm418.5 0V236.92h79.1l151.3 354.816V236.92h93.69V859h-75.26l-152.06-371.712V859zm418.5 0V236.92h261.12v79.872h-147.46v178.944h115.97v79.104h-115.97v205.824H3146V859zm495.92 8.448q-68.355 0-107.52-26.88-38.4-26.88-53.76-72.96-15.36-46.848-15.36-107.52V438.136q0-63.744 15.36-110.592t53.76-72.192q39.165-25.344 107.52-25.344c43.01 0 76.55 7.424 100.61 22.272 24.58 14.336 41.98 35.072 52.22 62.208q15.36 40.704 15.36 94.464v52.224h-109.05v-53.76c0-17.408-1.03-33.28-3.07-47.616-1.54-14.336-6.4-25.6-14.6-33.792-7.68-8.704-21.24-13.056-40.7-13.056s-33.79 4.608-43.01 13.824q-13.05 13.056-16.89 36.096-3.84 22.272-3.84 50.688v270.336q0 33.792 5.37 56.064 5.385 21.504 19.2 33.024c9.73 7.168 22.79 10.752 39.17 10.752 18.94 0 32.26-4.352 39.94-13.056q12.285-13.824 15.36-36.096c2.04-14.848 3.07-31.488 3.07-49.92V628.6h109.05v49.92c0 36.864-4.86 69.632-14.59 98.304q-14.595 42.24-51.45 66.816-36.105 23.808-102.15 23.808M3688.81 859V320.632h-99.08V236.92h310.28v83.712h-97.54V859zm432.25 8.448c-44.03 0-79.11-8.192-105.22-24.576s-44.8-39.936-56.06-70.656c-11.27-30.72-16.9-67.072-16.9-109.056V430.456c0-41.984 5.63-77.824 16.9-107.52 11.26-30.208 29.95-53.248 56.06-69.12s61.19-23.808 105.22-23.808c45.05 0 80.38 7.936 105.98 23.808q39.165 23.808 56.07 69.12c11.77 29.696 17.66 65.536 17.66 107.52v233.472c0 41.472-5.89 77.568-17.66 108.288q-16.905 45.312-56.07 70.656c-25.6 16.384-60.93 24.576-105.98 24.576m0-83.712c18.94 0 32.77-4.096 41.47-12.288 9.22-8.192 15.36-19.456 18.43-33.792s4.61-29.952 4.61-46.848V404.344c0-17.408-1.54-33.024-4.61-46.848s-9.21-24.576-18.43-32.256c-8.7-8.192-22.53-12.288-41.47-12.288q-26.88 0-40.71 12.288c-9.21 7.68-15.36 18.432-18.43 32.256s-4.61 29.44-4.61 46.848v286.464q0 25.344 3.84 46.848c3.08 14.336 9.22 25.6 18.44 33.792 9.21 8.192 23.04 12.288 41.47 12.288M4384.85 859V236.92h148.99c41.98 0 77.31 5.12 105.98 15.36 29.19 9.728 51.2 26.624 66.05 50.688q23.04 36.096 23.04 98.304c0 25.088-2.3 47.616-6.91 67.584s-12.54 37.12-23.81 51.456c-10.75 13.824-25.85 24.576-45.31 32.256L4739.66 859H4626l-75.26-284.928h-52.23V859zm113.66-356.352h35.33c22.02 0 39.42-3.072 52.22-9.216 13.32-6.656 22.79-16.896 28.42-30.72 5.63-14.336 8.45-32.512 8.45-54.528q0-46.848-17.67-69.888-16.89-23.808-65.28-23.808h-41.47z"
        fill="#0A0A0A" />
</svg>

<svg width="4769" height="1024" viewBox="0 0 4769 1024" fill="none" xmlns="http://www.w3.org/2000/svg">
<path d="M275.402 43.1981C273.396 43.368 271.392 43.496 269.428 44.308C268.916 44.522 268.574 44.9481 268.062 45.204C266.996 45.7581 266.1 46.3981 265.118 47.1241C263.112 48.5741 261.448 50.1961 260.084 52.1581C259.742 52.6701 259.102 52.884 258.804 53.438L2.81399 501.42C0.970045 504.642 0 508.289 0 512.001C0 515.713 0.970045 519.36 2.81399 522.582L258.804 970.564C259.146 971.076 259.742 971.29 260.084 971.802C261.497 973.87 263.276 975.662 265.332 977.092C266.186 977.69 266.954 978.286 267.892 978.756C268.446 979.054 268.83 979.524 269.428 979.78C271.774 980.718 274.206 981.018 276.596 981.102C276.852 981.102 277.108 981.316 277.364 981.316H746.678C747.104 981.316 747.488 981.018 747.916 980.974C750.902 980.804 753.89 980.334 756.62 978.884C756.79 978.798 756.834 978.628 757.004 978.542C757.986 977.988 758.626 977.006 759.522 976.28C761.484 974.702 763.404 973.166 764.728 971.074C764.856 970.86 765.112 970.776 765.198 970.604L1021.19 522.622C1023.07 519.294 1024 515.668 1024 511.998C1024 508.328 1023.07 504.702 1021.19 501.416L765.198 53.4341C765.07 53.2201 764.814 53.136 764.686 52.9221C763.492 50.9601 761.7 49.5941 759.908 48.1C758.884 47.246 758.116 46.0941 756.964 45.454C756.836 45.368 756.75 45.2401 756.622 45.1561C754.404 44.0041 751.972 43.7901 749.582 43.4501C748.6 43.3221 747.704 42.6821 746.68 42.6821H277.364C276.682 42.6861 276.084 43.1541 275.402 43.1981ZM273.95 112.998L336.54 269.494L86.182 441.602L273.95 112.998ZM59.006 512L341.362 317.874L341.362 706.126L59.006 512ZM86.226 582.526L336.542 754.592L273.95 911.046L86.226 582.526ZM308.852 938.65L373.49 777.12L664.292 938.65H308.852ZM406.768 746.742L764.3 550.1L728.548 925.508L406.768 746.742ZM965.892 533.332L777.228 863.558L808.372 533.332H965.892ZM745.06 511.998L384.028 710.56L384.028 313.434L745.06 511.998ZM965.892 490.666H808.756L777.312 160.61L965.892 490.666ZM764.684 474.026L406.896 277.212L728.588 98.4901L764.684 474.026ZM664.38 85.3481L373.49 246.964L308.852 85.3481H664.38Z" fill="#0A0A0A"/>
<path d="M1366.27 867.448C1320.7 867.448 1284.86 858.488 1258.75 840.568C1233.15 822.648 1215.23 798.328 1204.99 767.608C1194.75 736.376 1189.63 700.536 1189.63 660.088V438.136C1189.63 395.64 1194.75 358.776 1204.99 327.544C1215.23 296.312 1233.15 272.248 1258.75 255.352C1284.86 238.456 1320.7 230.008 1366.27 230.008C1409.28 230.008 1442.82 237.432 1466.88 252.28C1491.46 266.616 1508.86 287.352 1519.1 314.488C1529.34 341.624 1534.46 373.112 1534.46 408.952V461.176H1425.41V407.416C1425.41 390.008 1424.38 374.136 1422.34 359.8C1420.8 345.464 1415.94 334.2 1407.74 326.008C1400.06 317.304 1386.5 312.952 1367.04 312.952C1347.58 312.952 1333.25 317.56 1324.03 326.776C1315.33 335.48 1309.7 347.512 1307.14 362.872C1304.58 377.72 1303.3 394.616 1303.3 413.56V683.896C1303.3 706.424 1305.09 725.112 1308.67 739.96C1312.26 754.296 1318.66 765.304 1327.87 772.984C1337.6 780.152 1350.66 783.736 1367.04 783.736C1385.98 783.736 1399.3 779.384 1406.98 770.68C1415.17 761.464 1420.29 749.432 1422.34 734.584C1424.38 719.736 1425.41 703.096 1425.41 684.664V628.6H1534.46V678.52C1534.46 715.384 1529.6 748.152 1519.87 776.824C1510.14 804.984 1492.99 827.256 1468.42 843.64C1444.35 859.512 1410.3 867.448 1366.27 867.448ZM1782.56 867.448C1738.53 867.448 1703.45 859.256 1677.34 842.872C1651.23 826.488 1632.54 802.936 1621.28 772.216C1610.01 741.496 1604.38 705.144 1604.38 663.16V430.456C1604.38 388.472 1610.01 352.632 1621.28 322.936C1632.54 292.728 1651.23 269.688 1677.34 253.816C1703.45 237.944 1738.53 230.008 1782.56 230.008C1827.61 230.008 1862.94 237.944 1888.54 253.816C1914.65 269.688 1933.34 292.728 1944.61 322.936C1956.38 352.632 1962.27 388.472 1962.27 430.456V663.928C1962.27 705.4 1956.38 741.496 1944.61 772.216C1933.34 802.424 1914.65 825.976 1888.54 842.872C1862.94 859.256 1827.61 867.448 1782.56 867.448ZM1782.56 783.736C1801.5 783.736 1815.33 779.64 1824.03 771.448C1833.25 763.256 1839.39 751.992 1842.46 737.656C1845.53 723.32 1847.07 707.704 1847.07 690.808V404.344C1847.07 386.936 1845.53 371.32 1842.46 357.496C1839.39 343.672 1833.25 332.92 1824.03 325.24C1815.33 317.048 1801.5 312.952 1782.56 312.952C1764.64 312.952 1751.07 317.048 1741.85 325.24C1732.64 332.92 1726.49 343.672 1723.42 357.496C1720.35 371.32 1718.81 386.936 1718.81 404.344V690.808C1718.81 707.704 1720.09 723.32 1722.65 737.656C1725.73 751.992 1731.87 763.256 1741.09 771.448C1750.3 779.64 1764.13 783.736 1782.56 783.736ZM2046.35 859V236.92H2125.45L2276.75 591.736V236.92H2370.44V859H2295.18L2143.12 487.288V859H2046.35ZM2464.85 859V236.92H2543.95L2695.25 591.736V236.92H2788.94V859H2713.68L2561.62 487.288V859H2464.85ZM2883.35 859V236.92H3144.47V316.792H2997.01V495.736H3112.98V574.84H2997.01V780.664H3146V859H2883.35ZM3379.27 867.448C3333.7 867.448 3297.86 858.488 3271.75 840.568C3246.15 822.648 3228.23 798.328 3217.99 767.608C3207.75 736.376 3202.63 700.536 3202.63 660.088V438.136C3202.63 395.64 3207.75 358.776 3217.99 327.544C3228.23 296.312 3246.15 272.248 3271.75 255.352C3297.86 238.456 3333.7 230.008 3379.27 230.008C3422.28 230.008 3455.82 237.432 3479.88 252.28C3504.46 266.616 3521.86 287.352 3532.1 314.488C3542.34 341.624 3547.46 373.112 3547.46 408.952V461.176H3438.41V407.416C3438.41 390.008 3437.38 374.136 3435.34 359.8C3433.8 345.464 3428.94 334.2 3420.74 326.008C3413.06 317.304 3399.5 312.952 3380.04 312.952C3360.58 312.952 3346.25 317.56 3337.03 326.776C3328.33 335.48 3322.7 347.512 3320.14 362.872C3317.58 377.72 3316.3 394.616 3316.3 413.56V683.896C3316.3 706.424 3318.09 725.112 3321.67 739.96C3325.26 754.296 3331.66 765.304 3340.87 772.984C3350.6 780.152 3363.66 783.736 3380.04 783.736C3398.98 783.736 3412.3 779.384 3419.98 770.68C3428.17 761.464 3433.29 749.432 3435.34 734.584C3437.38 719.736 3438.41 703.096 3438.41 684.664V628.6H3547.46V678.52C3547.46 715.384 3542.6 748.152 3532.87 776.824C3523.14 804.984 3505.99 827.256 3481.42 843.64C3457.35 859.512 3423.3 867.448 3379.27 867.448ZM3688.81 859V320.632H3589.73V236.92H3900.01V320.632H3802.47V859H3688.81ZM4121.06 867.448C4077.03 867.448 4041.95 859.256 4015.84 842.872C3989.73 826.488 3971.04 802.936 3959.78 772.216C3948.51 741.496 3942.88 705.144 3942.88 663.16V430.456C3942.88 388.472 3948.51 352.632 3959.78 322.936C3971.04 292.728 3989.73 269.688 4015.84 253.816C4041.95 237.944 4077.03 230.008 4121.06 230.008C4166.11 230.008 4201.44 237.944 4227.04 253.816C4253.15 269.688 4271.84 292.728 4283.11 322.936C4294.88 352.632 4300.77 388.472 4300.77 430.456V663.928C4300.77 705.4 4294.88 741.496 4283.11 772.216C4271.84 802.424 4253.15 825.976 4227.04 842.872C4201.44 859.256 4166.11 867.448 4121.06 867.448ZM4121.06 783.736C4140 783.736 4153.83 779.64 4162.53 771.448C4171.75 763.256 4177.89 751.992 4180.96 737.656C4184.03 723.32 4185.57 707.704 4185.57 690.808V404.344C4185.57 386.936 4184.03 371.32 4180.96 357.496C4177.89 343.672 4171.75 332.92 4162.53 325.24C4153.83 317.048 4140 312.952 4121.06 312.952C4103.14 312.952 4089.57 317.048 4080.35 325.24C4071.14 332.92 4064.99 343.672 4061.92 357.496C4058.85 371.32 4057.31 386.936 4057.31 404.344V690.808C4057.31 707.704 4058.59 723.32 4061.15 737.656C4064.23 751.992 4070.37 763.256 4079.59 771.448C4088.8 779.64 4102.63 783.736 4121.06 783.736ZM4384.85 859V236.92H4533.84C4575.82 236.92 4611.15 242.04 4639.82 252.28C4669.01 262.008 4691.02 278.904 4705.87 302.968C4721.23 327.032 4728.91 359.8 4728.91 401.272C4728.91 426.36 4726.61 448.888 4722 468.856C4717.39 488.824 4709.46 505.976 4698.19 520.312C4687.44 534.136 4672.34 544.888 4652.88 552.568L4739.66 859H4626L4550.74 574.072H4498.51V859H4384.85ZM4498.51 502.648H4533.84C4555.86 502.648 4573.26 499.576 4586.06 493.432C4599.38 486.776 4608.85 476.536 4614.48 462.712C4620.11 448.376 4622.93 430.2 4622.93 408.184C4622.93 376.952 4617.04 353.656 4605.26 338.296C4594 322.424 4572.24 314.488 4539.98 314.488H4498.51V502.648Z" fill="#0A0A0A"/>
</svg>
